X: 91
T:Bell-sids-Minuet. JaW.091
M:3/4
Q:1/4=70
S:James Winder Ms, Lancashire, 1835-41
R:Minuet
O:England
A:Wyresdale,Lancashire
N:( = ) and (  ) mysterious ornaments in MS.
H:1/4
Z:vmp.Chris Partington, Aug 2004
K:G
G2A|B2d/e/|dcB|A2B|ce/c/A/c/|Bd/B/G/B/|!
c/d/ e/c/A/c/|B/c/ d/B/G/B/|AGF|G3|!
|dgf|gab|agf|e2f|gb/g/e/g/|!
f"g in MS"a/f/d/f/|g/a/ b/g/e/g/|f/g/ a/f/d/f/|ed"nat. in MS"^c|d3|!
dg2|c/d/ e/c/A/c/|B/c/ d/B/G/B/|A"="D2|!
G2""A|B/A/ B/c/d/B/|G2""A|B/A/ B/c/d/B/|gBA|G3||
